X: 298
T: Pig Ankle Rag
B: canberra pickers and fiddlers
B: tunes
M:4/4
L:1/8
Q: 1/4=100
K:D
V:1 
af \
| "A7"gecA- A2af | gecA- AABA \
| "D"dABA dABA | dBAF- F2af \
| "A7"gecA- A2af | gecA- AABA |
| "D"dABA dABA | dBAd- dBdA \
| "G"B4 d3e | "D"fa2a bafd \
| "A7"Acea fdec |1 "D"d2 a3^g :|2 "D"d6 |]
|: cB \
| "A7"ABcA BcAB | cABc- cBAF \
| "D"D2dA BdAB | dABd- dBAF \
| "A7"ABcA BcAB | cABc- cBAF |
| "D"D2dA BdAB | dABd- dBdA \
| "G"B4 d3e | "D"fa2a bafd \
| "A7"Acea fdec |1 "D"d2 [f4d4] :|2 "D"d6 |]
% abcbook-tune_id 63da5934bc78df3abfd26c5d
% abcbook-tune_composer_id 
% abcbook-link-0 https://www.youtube.com/watch?v=A1nRl42j1bI
% abcbook-link-start-at-0 16
% abcbook-link-end-at-0 120
% abcbook-boost 0
% abcbook-difficulty 0
% abcbook-tags canberra pickers and fiddlers,old time tunes,© free
% abcbook-tablature 
% abcbook-transpose 
% abcbook-tuning ADAE
% abcbook-lastupdated 1677374495449
% abcbook-src-url https://tunebook.net/scrape/tunes.abc
% abcbook-soundfonts 
% abcbook-repeats 1
%%gchordfont "itim-music,Itim" 20

